X: 142106
T: The NAVVIE
Q: "Hornpipe."
R:  Hornpipe.
%R: hornpipe
B: James Kerr "Merry Melodies" v.1 p.42 s.1 #6
Z: 2016 John Chambers <jc:trillian.mit.edu>
N: There's a 4-dot partial repeat symbol at the beginning.
M: C
L: 1/8
K: G
(B>c) |\
d>gf>e d>cB>A | G>BD>G B2(A>G) |\
F>AD>F A2(G>F) | G>DE>F G>AB>c |\
d>gf>e d>cB>A | G>BD>G B2(A>G) |\
F>AD>F A2(G>F) | G2B2G2 :|
(A>G) |\
F>AD>F A2(G>F) | G>BD>G B2(A>G) |\
F>AD>F A2(G>F) | G>DE>F G>AB>c |\
d>gf>e d>cB>A | G>BD>G B2(A>G) |\
F>Af>e d>cB>A | G2B2G2 H|]

%%sep 1 1 500
%%sep 1 1 500

